dist/img/partner_2.svg

<svg width="186" height="30" viewBox="0 0 186 30" fill="none" xmlns="http://www.w3.org/2000/svg">
<g clip-path="url(#clip0)">
<path d="M35.7171 7.49192L31.1212 29.8194H40.4453L44.912 7.49192H52.7918L48.3267 29.8194H57.6508L59.8841 18.2619H66.5827L64.3493 29.8194H73.6735L79.5845 0.00585938H70.2588L67.8947 11.5633H61.1977L63.5603 0.00585938H6.69264L0.650879 29.8194H23.3721L24.8179 22.3333H11.4208L12.2084 18.2619H25.6055L27.0498 11.5633H13.6527L14.4417 7.49192H35.7171ZM114.257 21.8073C113.206 27.0615 109.135 27.3245 108.347 27.3245C105.983 27.3245 104.67 26.011 104.67 23.7776C104.67 23.2531 104.801 22.5963 104.931 21.9396L107.428 9.33152H104.407L101.78 22.201V22.3333C101.619 22.9333 101.531 23.5504 101.518 24.1714C101.518 27.586 103.75 29.9501 107.165 29.9501C109.661 29.9501 111.63 29.1626 113.076 27.586L112.682 29.6886H115.57L119.642 9.33152H116.621L114.257 21.8073ZM134.614 9.06851C132.25 9.06851 130.28 9.98677 128.968 11.6941L129.361 9.33152H126.47L122.398 29.6886H125.419L127.914 17.2113C128.571 14.0582 131.067 11.6941 133.825 11.6941C135.006 11.6941 135.926 12.2201 136.714 13.1399L139.078 11.0388C137.896 9.72528 136.452 9.06851 134.613 9.06851H134.614ZM85.3632 11.9571H95.4764L81.9486 27.323L81.4225 29.8194H95.8702L96.3947 27.1923H85.6262L99.1541 11.8264L99.6786 9.33152H85.8877L85.3632 11.9571ZM146.435 9.33152H143.546L139.475 29.6886L139.342 29.8194H142.363L146.435 9.33152ZM179.795 9.06851C177.299 9.06851 175.461 9.85603 174.016 11.4326L176.379 0.00585938H173.359L167.318 29.8194H170.339L172.833 17.3421C173.884 12.0894 177.955 11.8264 178.875 11.8264C181.107 11.8264 182.551 13.1399 182.551 15.3717C182.551 15.8978 182.421 16.5546 182.29 17.2113L179.795 29.8194H182.814L185.441 16.9483C185.574 16.2915 185.704 15.6348 185.704 14.9795C185.443 11.4326 183.21 9.06851 179.795 9.06851ZM160.093 9.06851C154.71 9.06851 150.9 12.8769 149.718 19.4432C149.455 20.4937 149.455 21.8073 149.455 22.5963C149.455 27.1923 152.213 29.9501 156.678 29.9501C159.306 29.9501 161.67 28.8996 163.508 27.0615L161.8 24.9604C160.225 26.6678 158.781 27.3245 156.941 27.3245C154.84 27.3245 152.607 26.011 152.607 22.5963C152.607 21.5458 152.739 20.626 152.87 19.5755C153.132 17.8681 153.921 15.3717 155.497 13.7967C156.811 12.4831 158.255 11.8264 159.962 11.8264C161.8 11.8264 162.853 12.4831 163.903 14.0582L166.135 12.2201C164.428 9.98677 162.59 9.06697 160.093 9.06697V9.06851ZM147.617 3.68198L148.403 0.00585938H145.382L144.595 3.68198H147.617ZM118.591 3.68198L119.379 0.00585938H116.358L115.703 3.68198H118.591ZM110.712 3.68198L111.499 0.00585938H108.478L107.691 3.68198H110.712Z" fill="white"/>
</g>
<defs>
<clipPath id="clip0">
<rect width="184.729" height="30" fill="white" transform="translate(0.650879)"/>
</clipPath>
</defs>
</svg>

<svg width="186" height="30" fill="none" xmlns="http://www.w3.org/2000/svg"><g clip-path="url(#clip0)"><path d="M35.717 7.492l-4.596 22.327h9.324l4.467-22.327h7.88l-4.465 22.327h9.324l2.233-11.557h6.699l-2.234 11.557h9.325L79.584.006H70.26l-2.364 11.557h-6.697L63.56.006H6.693L.65 29.819h22.721l1.446-7.486H11.42l.787-4.071h13.397l1.445-6.699H13.653l.789-4.071h21.275zm78.54 14.315c-1.051 5.255-5.122 5.518-5.91 5.518-2.364 0-3.677-1.314-3.677-3.547 0-.525.131-1.182.261-1.838l2.497-12.608h-3.021L101.78 22.2v.132a7.715 7.715 0 00-.262 1.838c0 3.415 2.232 5.78 5.647 5.78 2.496 0 4.465-.788 5.911-2.365l-.394 2.103h2.888l4.072-20.357h-3.021l-2.364 12.475zM134.614 9.07c-2.364 0-4.334.918-5.646 2.625l.393-2.362h-2.891l-4.072 20.357h3.021l2.495-12.478c.657-3.153 3.153-5.517 5.911-5.517 1.181 0 2.101.526 2.889 1.446l2.364-2.101c-1.182-1.314-2.626-1.97-4.465-1.97h.001zm-49.25 2.888h10.112L81.95 27.323l-.526 2.496H95.87l.525-2.627H85.626l13.528-15.366.525-2.494H85.888l-.525 2.625zm61.071-2.625h-2.889l-4.071 20.357-.133.13h3.021l4.072-20.487zm33.36-.263c-2.496 0-4.334.787-5.779 2.364L176.379.006h-3.02l-6.041 29.813h3.021l2.494-12.477c1.051-5.253 5.122-5.516 6.042-5.516 2.232 0 3.676 1.314 3.676 3.546 0 .526-.13 1.183-.261 1.84l-2.495 12.607h3.019l2.627-12.87c.133-.658.263-1.314.263-1.97-.261-3.546-2.494-5.91-5.909-5.91zm-19.702 0c-5.383 0-9.193 3.808-10.375 10.374-.263 1.05-.263 2.364-.263 3.153 0 4.596 2.758 7.354 7.223 7.354 2.628 0 4.992-1.05 6.83-2.889l-1.708-2.1c-1.575 1.707-3.019 2.364-4.859 2.364-2.101 0-4.334-1.314-4.334-4.729 0-1.05.132-1.97.263-3.02.262-1.708 1.051-4.204 2.627-5.78 1.314-1.313 2.758-1.97 4.465-1.97 1.838 0 2.891.657 3.941 2.232l2.232-1.838c-1.707-2.233-3.545-3.153-6.042-3.153v.002zm-12.476-5.387l.786-3.676h-3.021l-.787 3.676h3.022zm-29.026 0l.788-3.676h-3.021l-.655 3.676h2.888zm-7.879 0l.787-3.676h-3.021l-.787 3.676h3.021z" fill="#fff"/></g><defs><clipPath id="clip0"><path fill="#fff" transform="translate(.65)" d="M0 0h184.729v30H0z"/></clipPath></defs></svg>
